X:164
T:Seamus Ennis's
R:jig
H:A version of a tune called "The Hare in the Corn" or "The Absent-Minded Man"
D:Matt Molloy & Sean Keane: Contentment is Wealth
Z:id:hn-jig-164
M:6/8
K:G
BGB def|gdc BAB|GBd gdB|ecA ABc|BGB def|gdc BAB|GBd gdc|1 BGF G2c:|2 BGF G2B||
dBd ~G3|dBd GFG|ece ~A3|ece ~A3|d2B e2B|dcB edc|def gdc|1 BGF G2B:|2 BGF G2c||

